flaticon/essential/close.svg

<svg xmlns="http://www.w3.org/2000/svg" width="32" height="32" viewBox="0 0 24 24">
    <path d="M 21.382812 3.710938 L 21.382812 0.21875 L 0 0.21875 L 0 20.726562 L 3.054688 20.726562 L 3.054688 23.78125 L 24 23.78125 L 24 3.710938 Z M 0.871094 19.855469 L 0.871094 1.089844 L 20.507812 1.089844 L 20.507812 3.710938 L 3.054688 3.710938 L 3.054688 19.855469 Z M 23.128906 22.910156 L 3.925781 22.910156 L 3.925781 4.582031 L 23.128906 4.582031 Z M 23.128906 22.910156"/>
    <path d="M 17.230469 10.042969 C 17.058594 9.871094 16.785156 9.871094 16.613281 10.042969 L 13.527344 13.128906 L 10.441406 10.042969 C 10.269531 9.871094 9.996094 9.871094 9.824219 10.042969 C 9.652344 10.214844 9.652344 10.488281 9.824219 10.660156 L 12.910156 13.746094 L 9.824219 16.832031 C 9.652344 17 9.652344 17.277344 9.824219 17.449219 C 9.910156 17.53125 10.023438 17.574219 10.132812 17.574219 C 10.246094 17.574219 10.355469 17.53125 10.441406 17.449219 L 13.527344 14.363281 L 16.613281 17.449219 C 16.699219 17.53125 16.808594 17.574219 16.921875 17.574219 C 17.03125 17.574219 17.144531 17.53125 17.230469 17.449219 C 17.402344 17.277344 17.402344 17 17.230469 16.832031 L 14.144531 13.746094 L 17.230469 10.660156 C 17.402344 10.488281 17.402344 10.214844 17.230469 10.042969 Z M 17.230469 10.042969"/>
</svg>

<svg xmlns="http://www.w3.org/2000/svg" width="32" height="32" viewBox="0 0 24 24">
    <path d="M21.383 3.71V.22H0v20.508h3.055v3.054H24V3.711zM.87 19.856V1.09h19.637v2.62H3.055v16.145zM23.13 22.91H3.926V4.582h19.203zm0 0"/>
    <path d="M17.23 10.043a.434.434 0 0 0-.617 0l-3.086 3.086-3.086-3.086a.434.434 0 0 0-.617 0 .434.434 0 0 0 0 .617l3.086 3.086-3.086 3.086a.434.434 0 0 0 .309.742.444.444 0 0 0 .308-.125l3.086-3.086 3.086 3.086a.444.444 0 0 0 .617 0 .434.434 0 0 0 0-.617l-3.085-3.086 3.085-3.086a.434.434 0 0 0 0-.617zm0 0"/>
</svg>
